ICONS/component-icons/svg/error.svg

<?xml version="1.0" encoding="UTF-8"?><svg id="widgets" xmlns="http://www.w3.org/2000/svg" width="24" height="24" viewBox="0 0 24 24"><path id="error" d="M4,14v-2H14l-2,2H4ZM20,2h-2V10h2V2Zm2,2v12H2V6h14v-2H0v14H24V4h-2Zm-2,8h-2v2h2v-2ZM0,22H11l2-2H0v2Z"/></svg>

<?xml version="1.0" encoding="utf-8"?>
<!-- Generator: Adobe Illustrator 24.2.3, SVG Export Plug-In . SVG Version: 6.00 Build 0)  -->
<svg version="1.1" id="Layer_1" xmlns="http://www.w3.org/2000/svg" xmlns:xlink="http://www.w3.org/1999/xlink" x="0px" y="0px"
	 width="24px" height="24px" viewBox="0 0 24 24" enable-background="new 0 0 24 24" xml:space="preserve">
<path d="M0,22h11l2-2H0V22z M20,2h-2v8h2V2z M20,12h-2v2h2V12z M12,14l2-2H4v2H12z M22,4v12H2V6h14V4H0v14h24V4H22z"/>
</svg>
